!!!COM: Schubert, Franz
!!!CNT: Deutscher
!!!TXO: Deutsch
!!!OTL: "Des Muellers Blumen"
!!!OPR: Die schoene Muellerin
!!!LYR: Mu2ller, Wilhelm
!!!OPS: Opus 25
!!!ONM: No. 9
!!!ODT: 1823/
!!NB: Vocal melody only encoded.
**kern	**silbe
*clefG2	*
*k[f#c#g#]	*
*M6/8	*
*MM[massig]	*
=6	=6
4r	.
8r	.
4r	.
{8ee	{Am
=7	=7
8ee	Bach
8cc#	|
8a	viel
8e	klei-
8a	|
8cc#	-ne
=8	=8
8ee	Blu-
8dd	|
8cc#	-men
4b}	steh'n,}
{8ee	{aus
=9	=9
8ee	hel-
8cc#	|
8a	-len
8ff#	blau-
8dd	|
8b	-en
=10	=10
4b	Au-
16dd	-gen
16cc#	|
4b}	seh'n,}
{16cc#	{der
16dd	|
=11	=11
8ee	Bach,
8cc#	|
8a	der
8e	ist
8a	|
8cc#	des
=12	=12
8ee	Mu2l-
8dd	|
8cc#	-lers
4b}	Freund}
{8dd	{und
=13	=13
8cc#	hell-
8dd	|
8cc#	-blau
8cc#	Lieb-
8ff#	|
8ee	-chens
=14	=14
8dd#	Au-
8cc#	|
8dd#	-ge
4.e}	scheint,}
=16	=16
{4.cc#	{d'rum
8b	sind
8cc#	|
8b	es
=17	=17
8a	mei-
8cc#	|
8ff#	-ne
(4ee	Blu-
8dd)	|
=18	=18
4cc#}	-men,}
8r	.
4r	.
8r	.
=19	=19
{4.cc#	{d'rum
8b	sind
8cc#	|
8b	es
=20	=20
8a	mei-
8cc#	|
8ff#	-ne
(4ee	Blu-
8g#)	|
=21	=21
4a}	-men.}
8r	.
4r	.
8r	.
*-	*-
